X: 10381
Q: "Slowish"
M: C
L: 1/16
K: G
dG3d3B Td4 G2Bc | d3d (edc)B c2A2 A2Bc |\
d2G2Bg3 | Ag3 Gg3 | d3G {c}B2AG D2G2G2 :|
e2 |\
(d3e)~g3a (gaba) g4 | d2G2 {c}B2AG D2G2G2e2 |
~d3e~g3a gaba g2dc | B2g2 {e}d2cB A3B {d}c2BA |\


